src/assets/top_menu_research.svg

<svg width="34" height="37" viewBox="0 0 34 37" fill="none" xmlns="http://www.w3.org/2000/svg">
<path d="M3.28011 11.3805L2.68561 10.6259L5.45004 8.39244L6.04454 9.147L3.28011 11.3805ZM8.69007 8.72445L12.0193 10.7467L12.5246 9.90155L9.1954 7.87934L8.69007 8.72445ZM14.8729 9.32809L15.5863 9.9921L18.9155 6.27969L18.2021 5.61568L14.8729 9.32809ZM25.128 6.88333L21.7988 4.86113L21.2935 5.70623L24.6227 7.72843L25.128 6.88333ZM27.8033 6.67206L28.5761 7.2757L31.5486 3.23129L30.7758 2.62765L27.8033 6.67206ZM1.40744 11.2597C0.931836 11.2597 0.54541 11.6521 0.54541 12.135C0.54541 12.6179 0.931836 13.0103 1.40744 13.0103C1.88304 13.0103 2.26946 12.6179 2.26946 12.135C2.26946 11.6521 1.91276 11.2597 1.40744 11.2597ZM7.23354 6.37024C6.75794 6.37024 6.37152 6.7626 6.37152 7.24552C6.37152 7.72843 6.75794 8.1208 7.23354 8.1208C7.70915 8.1208 8.09557 7.72843 8.09557 7.24552C8.09557 6.7626 7.70915 6.37024 7.23354 6.37024ZM14.0109 10.2939C13.5353 10.2939 13.1488 10.6863 13.1488 11.1692C13.1488 11.6521 13.5353 12.0445 14.0109 12.0445C14.4865 12.0445 14.8729 11.6521 14.8729 11.1692C14.8729 10.6863 14.4865 10.2939 14.0109 10.2939ZM20.699 4.28767C20.699 3.80475 20.3126 3.41238 19.837 3.41238C19.3614 3.41238 18.9749 3.80475 18.9749 4.28767C18.9749 4.77058 19.3614 5.16295 19.837 5.16295C20.3126 5.16295 20.699 4.77058 20.699 4.28767ZM27.4763 8.21135C27.4763 7.72843 27.0899 7.33607 26.6143 7.33607C26.1387 7.33607 25.7522 7.72843 25.7522 8.21135C25.7522 8.69426 26.1387 9.08663 26.6143 9.08663C27.0899 9.08663 27.4763 8.72445 27.4763 8.21135ZM32.4107 2.23528C32.8863 2.23528 33.2727 1.84291 33.2727 1.35999C33.2727 0.877079 32.8863 0.454529 32.4107 0.454529C31.9351 0.454529 31.5486 0.846897 31.5486 1.32981C31.5486 1.81273 31.9351 2.23528 32.4107 2.23528ZM0.783211 36.0695H2.26946V20.9784H0.783211V36.0695ZM3.16121 36.0695H4.64747V25.5057H3.16121V36.0695ZM5.53922 36.0695H7.02547V24.2985H5.53922V36.0695ZM7.91722 36.0695H9.40347V18.262H7.91722V36.0695ZM10.2952 36.0695H11.7815V20.9784H10.2952V36.0695ZM12.6732 36.0695H14.1595V25.5057H12.6732V36.0695ZM15.0512 36.0695H16.5375V24.2985H15.0512V36.0695ZM17.4292 36.0695H18.9155V17.3566H17.4292V36.0695ZM19.8072 36.0695H21.2935V20.9784H19.8072V36.0695ZM22.1852 36.0695H23.6715V24.6003H22.1852V36.0695ZM24.5632 36.0695H26.0495V22.4875H24.5632V36.0695ZM26.9412 36.0695H28.4275V20.0729H26.9412V36.0695ZM29.3193 36.0695H30.8055V24.2985H29.3193V36.0695ZM31.6973 36.0695H33.1835V18.262H31.6973V36.0695Z" fill="url(#paint0_linear)"/>
<defs>
<linearGradient id="paint0_linear" x1="0.54541" y1="18.262" x2="33.2893" y2="18.262" gradientUnits="userSpaceOnUse">
<stop stop-color="#316BAE"/>
<stop offset="1" stop-color="#C82F3F"/>
</linearGradient>
</defs>
</svg>

<svg width="34" height="37" fill="none" xmlns="http://www.w3.org/2000/svg"><path d="M3.28 11.38l-.594-.754L5.45 8.392l.595.755L3.28 11.38zm5.41-2.656l3.33 2.023.505-.845-3.33-2.023-.505.845zm6.183.604l.713.664 3.33-3.712-.714-.664-3.33 3.712zm10.255-2.445l-3.33-2.022-.504.845 3.329 2.022.505-.845zm2.675-.21l.773.603L31.55 3.23l-.773-.603-2.973 4.044zM1.407 11.26a.87.87 0 0 0-.862.875.87.87 0 0 0 .862.875.87.87 0 0 0 .862-.875c0-.483-.356-.875-.862-.875zm5.827-4.89a.87.87 0 0 0-.862.876.87.87 0 0 0 .862.875.87.87 0 0 0 .862-.875.87.87 0 0 0-.862-.876zm6.777 3.924a.87.87 0 0 0-.862.875.87.87 0 0 0 .862.875.87.87 0 0 0 .862-.875.87.87 0 0 0-.862-.875zm6.688-6.006a.87.87 0 0 0-.862-.876.87.87 0 0 0-.862.876.87.87 0 0 0 .862.875.87.87 0 0 0 .862-.875zm6.777 3.923a.87.87 0 0 0-.862-.875.87.87 0 0 0-.862.875.87.87 0 0 0 .862.876.85.85 0 0 0 .862-.876zm4.935-5.976a.87.87 0 0 0 .862-.875c0-.483-.387-.905-.862-.905a.87.87 0 0 0-.862.875c0 .483.386.905.862.905zM.783 36.07H2.27V20.98H.783v15.09zm2.378 0h1.486V25.506H3.161v10.563zm2.378 0h1.486V24.3H5.54v11.77zm2.378 0h1.486V18.262H7.917v17.807zm2.378 0h1.486V20.98h-1.486v15.09zm2.378 0h1.486V25.506h-1.486v10.563zm2.378 0h1.487V24.3H15.05v11.77zm2.378 0h1.487V17.357h-1.487v18.712zm2.378 0h1.487V20.98h-1.487v15.09zm2.378 0h1.487V24.6h-1.487v11.47zm2.378 0h1.486V22.487h-1.486V36.07zm2.378 0h1.486V20.073h-1.486v15.996zm2.378 0h1.486V24.3H29.32v11.77zm2.378 0h1.487V18.262h-1.487v17.807z" fill="url(#paint0_linear)"/><defs><linearGradient id="paint0_linear" x1=".545" y1="18.262" x2="33.289" y2="18.262" gradientUnits="userSpaceOnUse"><stop stop-color="#316BAE"/><stop offset="1" stop-color="#C82F3F"/></linearGradient></defs></svg>
